X:63
T:GB/7a/63 Yonder Stands a Lovely Creature
%%VWML:GB-7a-63-0
F:http://www.vwml.org/record/GB/7a/63
T:Version 2 of 2
C:Heygate, Rusper, II. 10
C:Transcribed by Simon Furey and Lewis Jones
L:1/8
M:4/4
I:linebreak $
K:G
G2 G2 GA Bc | d2 d2 cB G2 | g3 e a3 g | f2 e2 d4 |$ d3 d d2 B2 | g2 e2 d2 GA | B3 c d2 A2 | c2 BA G4 |]

